X:1
T:Malmesbury Abbey, CM
T:James Comley, 1875
T:Malmesbury Abbey, CM
T:Public Domain
C:James Comley, 1875
Z:Public Domain
%%score ( 1 2 ) ( 3 4 )
L:1/8
M:4/4
K:Eb
V:1 treble 
V:2 treble 
V:3 bass 
V:4 bass 
V:1
 [EB]2 | [Ec]2 [Ee]2 [FB]2 [EG]2 | [EA]2 [DF]2 [EG]2 [DF]2 | E2 [DF]2 [EG]2 [E=A]2 | [DB]6 [EB]2 | %5
 [Ac]2 [Fd]2 [Ee]2 [Ec]2 | [EB]2 (GF) E2 [DF]2 | [EG]2 [EB]2 E2 [DF]2 | E6 |] %9
V:2
 x2 | x8 | x8 | E2 x6 | x8 | x8 | x2 D2 E2 x2 | x4 E2 x2 | E6 |] %9
V:3
 [E,G,]2 | A,2 [G,B,]2 [D,B,]2 [E,B,]2 | [A,,C]2 [B,,B,]2 [E,B,]2 (B,A,) | %3
 [C,G,]2 [B,,B,]2 [E,B,]2 [C,F,]2 | [B,,F,]6 G,2 | [F,A,]2 [B,,A,]2 [C,G,]2 [A,,A,]2 | %6
 [B,,G,]2 [=B,,G,]2 [C,G,]2 [_B,,=B,]2 | [E,B,]2 [G,,B,]2 [C,G,]2 [B,,A,]2 | [E,G,]6 |] %9
V:4
 x2 | A,2 x6 | x6 B,,2 | x8 | x6 G,2 | x8 | x8 | x8 | x6 |] %9

